X:1
T:What the Old World Needs
T:What the Old World Needs
T:Samuel William Beazley
T:Chauncey Roscoe Piety, 1917
T:Public Domain Courtesy of the Cyber Hymnal™
T:Public Domain Courtesy of the Cyber Hymnal™
C:Samuel William Beazley
Z:Public Domain
Z:Courtesy of the Cyber Hymnal™
%%score ( 1 2 ) ( 3 4 )
L:1/8
Q:1/4=100
M:4/4
K:G
V:1 treble 
V:2 treble 
V:3 bass 
V:4 bass 
V:1
 [B,D][B,D] | [B,G]2 [^A,F][A,E] [B,D]2 [DG][D=A] | [DB]2 [Ec][Ge] [Gd]2 [GB][Bd] | %3
w: 1.~There are|ma- ny hearts ach- ing ’neath|loads that they bear, And all|
w: 2.~There are|souls that are bur- dened ’neath|po- ver- ty’s sting, Who con-|
w: 3.~There are|those who might buy an- y|rich thing of earth, But their|
w: 4.~There are|ma- ny to- night that are|wound- ed by sin, And they|
 [Ac] [Ac]2 D [GB]2 [FA][FA] | G6 [B,D][B,D] | [B,G]2 [^A,F][A,E] [B,D]2 [DG][D=A] | %6
w: drea- ry their days are and|long; But the|love of a friend would re-|
w: sid- er each man as his|foe; They need|friend- ship and kind- ness to|
w: hearts are now ach- ing and|cold; They are|wast- ing their time seek- ing|
w: think no one cares for their|pain; They are|per- ish- ing now, whom the|
 [DB]2 [Ec][Ge] [Gd]2 [GB][Gd] | [FA] [FA]2 [DF] [^CA]2 [CG][CE] | D6 ||"^Refrain" [Fd]>[Fc] | %10
w: lieve toil and care, And fill|life with a joy- ous new|song.||
w: cause them to sing, And the|love of a Sav- ior to|know.|What the|
w: plea- sure and mirth, While true|love would bring glad- ness un-|told.||
w: Christ died to win, And they’re|long- ing for love all in|vain.||
 [GB] [GB]3 [DG]2 [Ge]2 | d6 [DB]>[DA] x2 | [EG] [CE]3 [EG]2 c2 | [DB]6 [DB][Dc] | %14
w: ||||
w: old world needs is|love, Like the|Christ brought from a-|bove, Love that|
w: ||||
w: ||||
 [Gd][Gd][Ge][GB] [Gd]2 [DG][DA] | [GB][GB][Gc]G [GB]2 [B,D]>[B,D] | ([CE] [Ec]3) [DB]2 [DA]2 | %17
w: |||
w: reach- es out, a- round, Where the|wea- ry ones are found; What the|world * needs is|
w: |||
w: |||
 [DG]6 |] %18
w: |
w: love.|
w: |
w: |
V:2
 x2 | x8 | x8 | x3 D x4 | G6 x2 | x8 | x8 | x8 | D6 || x2 | x8 | (G2 BA G2) x4 | x6 (E_E) | x8 | %14
 x8 | x3 G x4 | x8 | x6 |] %18
V:3
 [G,,G,][G,,G,] | [G,,G,]2 [G,,^C,G,][G,,C,G,] [G,,D,G,]2 [B,,G,][D,F,] | %2
w: ~ ~|~ ~ ~ ~ ~ ~|
 G,2 G,[G,C] [G,B,]2 [G,D][G,D] | [D,D] [D,D]2 [D,D] [D,D]2 [D,C][D,C] | [G,,B,]6 [G,,G,][G,,G,] | %5
w: ~ ~ ~ ~ ~ ~|~ ~ ~ ~ ~ ~|~ ~ ~|
 [G,,G,]2 [G,,^C,G,][G,,C,G,] [G,,D,G,]2 [B,,G,][D,F,] | G,2 G,[G,C] [G,B,]2 [G,D][G,B,] | %7
w: ~ ~ ~ ~ ~ ~|~ ~ ~ ~ ~ ~|
 [A,D] [A,D]2 A, [A,,A,]2 [A,,A,][A,,G,] | [D,F,]6 || [D,A,]>[D,D] | [G,D] [G,D]3 [G,B,]2 [G,C]2 | %11
w: ~ ~ ~ ~ ~ ~|~|~ ~|~ ~ ~ ~|
 B,2 [G,,G,]>[B,,G,] x6 | [C,G,] [C,G,]3 [C,C]2 [C,G,]2 | [G,,G,]2 [B,,G,][D,G,] G,2 G,[G,A,] | %14
w: ~ sweet love,|~ ~ ~ ~|~ ~ ~ from a- bove,|
 [G,B,][G,B,][G,C][G,D] [G,B,]2 [G,B,][G,C] | [G,D][G,D][G,E][G,_E] [G,D]2 [G,,G,]>[G,,G,] | %16
w: ||
 ([C,G,] [C,G,]3) [D,G,]2 [D,C]2 | [G,,B,]6 |] %18
w: ||
V:4
 x2 | x8 | G,2 G, x5 | x8 | x8 | x8 | G,2 G, x5 | x3 A, x4 | x6 || x2 | x8 | G,6 (DC) B,2 | x8 | %13
 x4 G,2 G, x | x8 | x8 | x8 | x6 |] %18

